static/img/menus/ico-timeslot-add.svg

<svg xmlns="http://www.w3.org/2000/svg" width="16" height="16" fill="none" viewBox="0 0 16 16"><path fill="currentColor" d="M12 4h-2V3H3v7h1v2H1V1h11z"/><path fill="currentColor" d="M10 9h2v1h-2v2H9v-2H7V9h2V7h1z"/><path fill="currentColor" d="M15 15H4V4h11zM6 6v7h7V6z"/></svg>

<svg width="16" height="16" viewBox="0 0 16 16" fill="none" xmlns="http://www.w3.org/2000/svg">
<path d="M12 4H10V3H3V10H4V12H1V1H12V4Z" fill="currentColor"/>
<path d="M10 9H12V10H10V12H9V10H7V9H9V7H10V9Z" fill="currentColor"/>
<path d="M15 15H4V4H15V15ZM6 6V13H13V6H6Z" fill="currentColor"/>
</svg>
